svg/Pictogram/pictograms-nps-misc-falling_rocks.svg

<svg xmlns="http://www.w3.org/2000/svg" viewBox="0 0 256 256"><path d="m0 0c-.541 0-.981-.44-.981-.981v-7.522c0-.54.44-.979.981-.979h7.521c.542 0 .982.439.982.979v7.522c0 .541-.44.981-.982.981h-7.521" fill="#fff" transform="matrix(25.89783 0 0-25.89783 30.598 5.239)"/><path d="m0 0c.652 0 1.182.527 1.182 1.18v7.521c0 .653-.53 1.182-1.182 1.182h-7.521c-.653 0-1.182-.529-1.182-1.182v-7.521c0-.653.529-1.18 1.182-1.18h7.521" transform="matrix(25.89783 0 0-25.89783 225.39 256)"/><g fill="#fff"><path d="m0 0l.479.223-.223.476-.477-.22.221-.479" transform="matrix(25.89783 0 0-25.89783 114.31 53.52)"/><path d="m0 0l-.789.266-.268-.789.791-.266.266.789" transform="matrix(25.89783 0 0-25.89783 108.85 63.991)"/><path d="m0 0l1.443.135.121-1.375-1.039-.123-.421.56-.104.803" transform="matrix(25.89783 0 0-25.89783 109 72.54)"/><path d="m0 0l.502-.305.291.053.344.568v.014l-.502.305-.291-.053-.344-.568v-.014" transform="matrix(25.89783 0 0-25.89783 155.13 132.13)"/><path d="m0 0l.932-.125-.119-.953-.661.094-.246.476.094.508" transform="matrix(25.89783 0 0-25.89783 160.64 150.48)"/><path d="m0 0l-2.521 3.047-.547 1.344-.532.162.002-6.631c0-.184.149-.332.332-.332l4.534.004-.372 1.322-.896 1.084" transform="matrix(25.89783 0 0-25.89783 136.52 152.66)"/><path d="m0 0l.219.164-.311.412-.211-.158v-.418h.303" transform="matrix(25.89783 0 0-25.89783 126.91 125.2)"/><path d="m0 0h-.822v.584l.336.338.486-.371v-.551" transform="matrix(25.89783 0 0-25.89783 212.94 215.38)"/></g></svg>

<?xml version="1.0" encoding="UTF-8" standalone="no"?>
<!-- Created with Inkscape (http://www.inkscape.org/) -->
<svg
   xmlns:dc="http://purl.org/dc/elements/1.1/"
   xmlns:cc="http://creativecommons.org/ns#"
   xmlns:rdf="http://www.w3.org/1999/02/22-rdf-syntax-ns#"
   xmlns:svg="http://www.w3.org/2000/svg"
   xmlns="http://www.w3.org/2000/svg"
   xmlns:sodipodi="http://sodipodi.sourceforge.net/DTD/sodipodi-0.dtd"
   xmlns:inkscape="http://www.inkscape.org/namespaces/inkscape"
   width="256"
   height="256"
   id="svg5294"
   sodipodi:version="0.32"
   inkscape:version="0.46"
   version="1.0"
   sodipodi:docname="pictograms-nps-falling_rocks-2.svg"
   inkscape:output_extension="org.inkscape.output.svg.inkscape">
  <defs
     id="defs5296">
    <inkscape:perspective
       sodipodi:type="inkscape:persp3d"
       inkscape:vp_x="0 : 526.18109 : 1"
       inkscape:vp_y="0 : 1000 : 0"
       inkscape:vp_z="744.09448 : 526.18109 : 1"
       inkscape:persp3d-origin="372.04724 : 350.78739 : 1"
       id="perspective5302" />
  </defs>
  <sodipodi:namedview
     id="base"
     pagecolor="#ffffff"
     bordercolor="#666666"
     borderopacity="1.0"
     gridtolerance="10000"
     guidetolerance="10"
     objecttolerance="10"
     inkscape:pageopacity="0.0"
     inkscape:pageshadow="2"
     inkscape:zoom="0.98994949"
     inkscape:cx="112.80911"
     inkscape:cy="62.857143"
     inkscape:document-units="px"
     inkscape:current-layer="layer1"
     showgrid="false"
     inkscape:window-width="725"
     inkscape:window-height="674"
     inkscape:window-x="1"
     inkscape:window-y="309" />
  <metadata
     id="metadata5299">
    <rdf:RDF>
      <cc:Work
         rdf:about="">
        <dc:format>image/svg+xml</dc:format>
        <dc:type
           rdf:resource="http://purl.org/dc/dcmitype/StillImage" />
      </cc:Work>
    </rdf:RDF>
  </metadata>
  <g
     inkscape:label="Layer 1"
     inkscape:groupmode="layer"
     id="layer1">
    <g
       id="g5866"
       transform="matrix(25.897825,0,0,-25.897825,30.598322,5.2390264)">
      <path
         d="M 0,0 C -0.541,0 -0.981,-0.44 -0.981,-0.981 L -0.981,-8.503 C -0.981,-9.043 -0.541,-9.482 0,-9.482 L 7.521,-9.482 C 8.063,-9.482 8.503,-9.043 8.503,-8.503 L 8.503,-0.981 C 8.503,-0.44 8.063,0 7.521,0 L 0,0 z"
         style="fill:#ffffff;fill-opacity:1;fill-rule:nonzero;stroke:none"
         id="path5868" />
    </g>
    <g
       id="g5870"
       transform="matrix(25.897825,0,0,-25.897825,225.38877,256)">
      <path
         d="M 0,0 C 0.652,0 1.182,0.527 1.182,1.18 L 1.182,8.701 C 1.182,9.354 0.652,9.883 0,9.883 L -7.521,9.883 C -8.174,9.883 -8.703,9.354 -8.703,8.701 L -8.703,1.18 C -8.703,0.527 -8.174,0 -7.521,0 L 0,0 z"
         style="fill:#000000;fill-opacity:1;fill-rule:nonzero;stroke:none"
         id="path5872" />
    </g>
    <g
       id="g5874"
       transform="matrix(25.897825,0,0,-25.897825,114.3102,53.520652)">
      <path
         d="M 0,0 L 0.479,0.223 L 0.256,0.699 L -0.221,0.479 L 0,0 z"
         style="fill:#ffffff;fill-opacity:1;fill-rule:nonzero;stroke:none"
         id="path5876" />
    </g>
    <g
       id="g5878"
       transform="matrix(25.897825,0,0,-25.897825,108.84856,63.991039)">
      <path
         d="M 0,0 L -0.789,0.266 L -1.057,-0.523 L -0.266,-0.789 L 0,0 z"
         style="fill:#ffffff;fill-opacity:1;fill-rule:nonzero;stroke:none"
         id="path5880" />
    </g>
    <g
       id="g5882"
       transform="matrix(25.897825,0,0,-25.897825,109.0015,72.539808)">
      <path
         d="M 0,0 L 1.443,0.135 L 1.564,-1.24 L 0.525,-1.363 L 0.104,-0.803 L 0,0 z"
         style="fill:#ffffff;fill-opacity:1;fill-rule:nonzero;stroke:none"
         id="path5884" />
    </g>
    <g
       id="g5886"
       transform="matrix(25.897825,0,0,-25.897825,155.13042,132.12552)">
      <path
         d="M 0,0 L 0.502,-0.305 L 0.793,-0.252 L 1.137,0.316 L 1.137,0.33 L 0.635,0.635 L 0.344,0.582 L 0,0.014 L 0,0 z"
         style="fill:#ffffff;fill-opacity:1;fill-rule:nonzero;stroke:none"
         id="path5888" />
    </g>
    <g
       id="g5890"
       transform="matrix(25.897825,0,0,-25.897825,160.64421,150.48439)">
      <path
         d="M 0,0 L 0.932,-0.125 L 0.813,-1.078 L 0.152,-0.984 L -0.094,-0.508 L 0,0 z"
         style="fill:#ffffff;fill-opacity:1;fill-rule:nonzero;stroke:none"
         id="path5892" />
    </g>
    <g
       id="g5894"
       transform="matrix(25.897825,0,0,-25.897825,136.51794,152.65981)">
      <path
         d="M 0,0 L -2.521,3.047 L -3.068,4.391 L -3.6,4.553 L -3.598,-2.078 C -3.598,-2.262 -3.449,-2.41 -3.266,-2.41 L 1.268,-2.406 L 0.896,-1.084 L 0,0"
         style="fill:#ffffff;fill-opacity:1;fill-rule:nonzero;stroke:none"
         id="path5896" />
    </g>
    <g
       id="g5898"
       transform="matrix(25.897825,0,0,-25.897825,126.90705,125.19568)">
      <path
         d="M 0,0 L 0.219,0.164 L -0.092,0.576 L -0.303,0.418 L -0.303,0 L 0,0 z"
         style="fill:#ffffff;fill-opacity:1;fill-rule:nonzero;stroke:none"
         id="path5900" />
    </g>
    <g
       id="g5902"
       transform="matrix(25.897825,0,0,-25.897825,212.94491,215.38206)">
      <path
         d="M 0,0 L -0.822,0 L -0.822,0.584 L -0.486,0.922 L 0,0.551 L 0,0 z"
         style="fill:#ffffff;fill-opacity:1;fill-rule:nonzero;stroke:none"
         id="path5904" />
    </g>
  </g>
</svg>
